X:301
%%etbk:tnset id:93,pos:3,rep:3x,ant:
%%etbk:wsite http://www.thesession.org/tunes/display/741
%%etbk:pldat 2015-01-24T12:35,2015-01-18T11:11,2014-05-11T12:17,2014-05-07T16:16,2014-03-15T16:34,2013-12-10T19:08,2013-11-24T15:34,2013-11-19T16:47,2013-11-13T16:52,2013-05-15T17:00,2013-05-01T15:49
T: Paddy O'Rafferty
Z: Piano Box Version by Martin Fleischmann
H: Created 2013-02-19 /  Last Modified 2013-02-19
M: 6/8
L: 1/8
R: jig
K: Dmaj
|: "D"!3!d!5!ff !2!c!4!ee | !1!def !4!gfe | !1!dff !2!cee | !3!d!5!fe !3!d!2!B!1!A |
!3!d!5!ff !2!c!4!ee | !1!def "G"!4!g!3!g!4!g | "D"!5!a!3!f!1!d !4!gfe | !1!d !4!(3gfe !1!d!2!B!1!A:|
|: "D"!1!A!2!A!1!A !1!A2!3!f | "A"!4!gfe !3!f!1!d!2!B | "D"!1!AAA !1!AB!3!c | !3!d!5!fe !3!d!2!B!1!A |
!1!AAA "G"!2!B2!1!B | !2!eee !2!efg | "D"!3!faf !4!gfe | !1!d !4!(3gfe !1!d!2!B!1!A:|
|: "D"!4!fAA !3!eAA | !2!def !5!gfe | !4!fAA !3!eAA | !2!d!4!fe !2!d!1!B!1!A |
!4!f!1!AA !3!e!1!AA | !2!def "G"!5!g2!4!g | "D"!5!afd !4!gfe | !1!d !4!(3gfe !1!d!2!B!1!A:|


